public/static/icons/navbar/ic_error.svg

<svg height="24" viewBox="0 0 24 24" width="24" xmlns="http://www.w3.org/2000/svg"><path d="m21.7125809 7.2985c.2439577-.23766867.2670018-.62194088.0531954-.88706085-.2138064-.26511996-.5942382-.32400841-.8781954-.13593915-1.2298604.9730226-2.6873826 1.61660385-4.235 1.87v-.528c-.0128815-.79179455-.2703081-1.56023197-.737-2.2 1.2170082-1.26122443 1.8989306-2.9443507 1.903-4.697 0-.3675455-.2979545-.6655-.6655-.6655s-.6655.2979545-.6655.6655c-.0279737 1.38555501-.577972 2.70947946-1.54 3.707l-.11-.077c-.1523259-2.01364343-1.8306033-3.56975955-3.85-3.56975955-2.01939675 0-3.69767423 1.55611612-3.85000005 3.56975955l-.11.077c-.9749118-1.01132708-1.52591599-2.3573516-1.54-3.762 0-.3675455-.2979545-.6655-.6655-.6655s-.6655.2979545-.6655.6655c.0040694 1.7526493.68599175 3.43577557 1.903 4.697-.46669198.63976803-.72411852 1.40820545-.737 2.2v.528c-1.54087259-.22886828-2.99822039-.84587528-4.235-1.793-.18274135-.15130199-.43231997-.19361944-.654722-.11101178-.22240204.08260767-.38383933.27759037-.42350001.51150001-.03966068.23390965.04848065.4712098.23122201.62251177 1.46216801 1.16834508 3.20831667 1.92754015 5.06 2.2v1.925c-1.77040594 1.5947292-2.78174713 3.8652501-2.783 6.248 0 .3675455.2979545.6655.6655.6655s.6655-.2979545.6655-.6655c.00527215-1.5585192.52756455-3.0712328 1.485-4.301.11519881 2.8426157 2.34381657 5.1469402 5.18100005 5.357v-14.619c-.0283286-.18413892.0540736-.36775511.2104721-.46899324.1563985-.10123812.3576572-.10123812.5140557 0 .1563985.10123813.2388007.28485432.2104722.46899324v14.619c2.8242311-.2259473 5.0345648-2.5260167 5.148-5.357.9574354 1.2297672 1.4797278 2.7424808 1.485 4.301-.0000001.2377603.1268435.4574598.3327499.5763399.2059065.1188802.4595936.1188802.6655001 0 .2059064-.1188801.33275-.3385796.33275-.5763399-.0012529-2.3827499-1.0125941-4.6532708-2.783-6.248v-1.936c1.8599017-.27397231 3.6136779-1.03697886 5.082-2.211z" transform="translate(1 3)"/></svg>

<svg xmlns="http://www.w3.org/2000/svg" width="24" height="24" viewBox="0 0 24 24">
  <path d="M21.7125809,7.2985 C21.9565386,7.06083133 21.9795827,6.67655912 21.7657763,6.41143915 C21.5519699,6.14631919 21.1715381,6.08743074 20.8875809,6.2755 C19.6577205,7.2485226 18.2001983,7.89210385 16.6525809,8.1455 L16.6525809,7.6175 C16.6396994,6.82570545 16.3822728,6.05726803 15.9155809,5.4175 C17.1325891,4.15627557 17.8145115,2.4731493 17.8185809,0.7205 C17.8185809,0.352954499 17.5206264,0.055 17.1530809,0.055 C16.7855354,0.055 16.4875809,0.352954499 16.4875809,0.7205 C16.4596072,2.10605501 15.9096089,3.42997946 14.9475809,4.4275 L14.8375809,4.3505 C14.685255,2.33685657 13.0069776,0.78074045 10.9875809,0.78074045 C8.96818415,0.78074045 7.28990667,2.33685657 7.13758085,4.3505 L7.02758085,4.4275 C6.05266905,3.41617292 5.50166486,2.0701484 5.48758085,0.6655 C5.48758085,0.297954499 5.18962635,-2.54019028e-14 4.82208085,-2.54019028e-14 C4.45453535,-2.54019028e-14 4.15658085,0.297954499 4.15658085,0.6655 C4.16065025,2.4181493 4.8425726,4.10127557 6.05958085,5.3625 C5.59288887,6.00226803 5.33546233,6.77070545 5.32258085,7.5625 L5.32258085,8.0905 C3.78170826,7.86163172 2.32436046,7.24462472 1.08758085,6.2975 C0.904839503,6.14619801 0.655260884,6.10388056 0.432858847,6.18648822 C0.210456811,6.26909589 0.0490195188,6.46407859 0.0093588391,6.69798823 C-0.0303018406,6.93189788 0.0578394931,7.16919803 0.240580851,7.3205 C1.70274886,8.48884508 3.44889752,9.24804015 5.30058085,9.5205 L5.30058085,11.4455 C3.53017491,13.0402292 2.51883372,15.3107501 2.51758085,17.6935 C2.51758085,18.0610455 2.81553535,18.359 3.18308085,18.359 C3.55062635,18.359 3.84858085,18.0610455 3.84858085,17.6935 C3.853853,16.1349808 4.3761454,14.6222672 5.33358085,13.3925 C5.44877966,16.2351157 7.67739742,18.5394402 10.5145809,18.7495 L10.5145809,4.1305 C10.4862523,3.94636108 10.5686545,3.76274489 10.725053,3.66150676 C10.8814515,3.56026864 11.0827102,3.56026864 11.2391087,3.66150676 C11.3955072,3.76274489 11.4779094,3.94636108 11.4495809,4.1305 L11.4495809,18.7495 C14.273812,18.5235527 16.4841457,16.2234833 16.5975809,13.3925 C17.5550163,14.6222672 18.0773087,16.1349808 18.0825809,17.6935 C18.0825808,17.9312603 18.2094244,18.1509598 18.4153308,18.2698399 C18.6212373,18.3887201 18.8749244,18.3887201 19.0808309,18.2698399 C19.2867373,18.1509598 19.4135809,17.9312603 19.4135809,17.6935 C19.412328,15.3107501 18.4009868,13.0402292 16.6305809,11.4455 L16.6305809,9.5095 C18.4904826,9.23552769 20.2442588,8.47252114 21.7125809,7.2985 Z" transform="translate(1 3)"/>
</svg>
